static/assets/img/logos/brand/slack.svg

<svg fill="none" height="36" viewBox="0 0 120 36" width="120" xmlns="http://www.w3.org/2000/svg"><g fill="#adb5bd"><path d="m42.8475 14.0442c0-3.5548 2.5955-6.03695 7.3123-6.03695 2.878 0 5.233.9176 6.5089 1.81648.1826.12835.5083.43977.313 1.01887-.2503.6237-.7094 1.5617-1.0387 2.171-.1918.3551-.6814.3083-.9322.1814-.9088-.4599-2.3994-1.2379-3.7688-1.3813-.3467-.0377-.6956-.0528-1.0443-.0451-1.206.0268-2.2135.445-2.5683 1.3638-.0696.1738-.1083.3584-.1146.5455-.0332 1.2107 1.6542 1.6485 3.6984 1.9993 3.8003.6501 6.6754 1.7627 6.6754 5.6687 0 3.317-2.6399 6.3147-7.8124 6.2228-3.4099-.0688-5.8291-1.2194-7.1254-2.3358-.0442-.0379-.5377-.5398-.2732-1.1434.3027-.777.8137-1.6675 1.2147-2.1403.2229-.3037.8112-.3519 1.1171-.1627 1.0685.6631 2.8271 1.7263 4.8542 1.7969.16.0055.3185.0064.4742.0024 1.8234-.0442 2.9265-.7346 2.9035-1.8976-.0197-1.0246-1.4655-1.6231-3.7676-2.0564-3.6718-.6906-6.6257-1.8992-6.6257-5.5876zm33.3574 5.0615c-2.5893.0339-4.9633.7406-5.0317 2.7612-.0008 1.6035 1.3018 2.391 3.13 2.2879 1.7537-.1687 3.0911-.9282 3.6804-1.936.2179-.3735.251-1.7711.2378-2.3684-.0033-.1272-.2551-.3678-.3654-.4141-.5501-.2315-.9573-.303-1.6514-.3311zm-8.6156-8.142c1.2108-1.08191 3.6115-2.76597 7.4375-2.67721 5.049.10484 7.7163 2.46851 7.9647 8.12281.1024 2.3318-.0672 8.8358-.1076 10.4563-.006.2324-.0848.3932-.3985.3992-.8315.0333-2.7524.0201-3.635.0086-.4454-.0216-.4971-.2423-.5029-.4733-.0038-.1511-.0168-.5993-.0261-.9646-.0051-.1938-.1874-.1883-.234-.1387-1.1844 1.2628-3.124 1.8726-5.1867 1.8726-3.1351 0-6.2605-1.8416-6.2509-5.4887.0096-3.7352 2.6618-5.5776 5.5754-6.012 1.8656-.2774 3.9686-.0307 5.5612.6011.1018.0408.3099-.0182.3115-.1624.0065-.4759-.0165-1.383-.1081-1.8129-.2337-1.0953-1.1488-1.9767-3.0711-2.2142-.3959-.0487-.7945-.0647-1.1935-.0331-1.5282.12-3.3672 1.3098-4.1287 1.7553-.1792.1046-.4598.0281-.5506-.0887-.4445-.5734-1.5616-2.2502-1.6495-2.5182-.0879-.2672.0361-.4923.1924-.6328zm17.0671 6.9531c-.0301-5.2093 3.6047-9.60392 9.5068-9.64254 3.6828-.02399 6.3588 1.64327 6.8298 2.42964.096.1847.047.339-.019.5249-.312.6573-1.0997 1.9273-1.6609 2.647-.239.3066-.4985.0439-.8-.1564-.8367-.5566-2.4266-1.2372-3.9912-1.2372-2.8386.0005-4.9525 1.9441-4.9289 5.52.0221 3.4315 2.0468 5.3173 4.9387 5.3856 1.5118.0379 2.9765-.8298 3.7645-1.5406.2475-.2156.5035-.1077.7863.113.5549.5664 1.3505 1.4408 1.7925 2.0427.289.3344.072.6617-.032.7931-1.1969 1.513-3.5094 2.7864-6.5698 2.8037-6.408.0448-9.5868-4.4544-9.6164-9.6822zm30.5886 9.448c.301-.0225 3.51-.4649 4.496-.6902.244-.0556.331-.261.194-.4644-.55-.8238-1.996-3.1632-3.511-5.2575-1.393-1.9257-2.862-3.6193-3.337-4.2709-.116-.1583-.11-.3142.017-.4371.903-.8828 4.683-4.5831 6.104-6.1113.55-.59442.219-.85015-.248-.98905-.902-.26868-2.362-.60357-3.193-.77845-.35-.07389-.771-.04798-1.077.26628-1.421 1.32302-5.757 5.66872-7.052 6.96772-.233.2344-.368.1823-.369-.1526-.011-2.5045-.061-13.22726-.15-14.990961-.006-.233178-.287-.4102201-.446-.4186164-.813-.04246129-2.87-.0546961-3.68-.007197-.227.0256687-.444.2566874-.464.4519614-.186 2.820203.08 23.522613.191 26.418613.008.2094.164.3718.363.3836.808.0468 2.808.0436 3.741.0261.46 0 .516-.3224.516-.3224l.069-5.5552s.047-.2471.124-.3287c.329-.3538 1.24-1.3283 1.628-1.7049.093-.0904.24-.084.335.0439.461.6213 1.777 2.6412 2.996 4.4452 1.12 1.6572 2.166 3.128 2.239 3.2319.169.2399.366.2495.514.2449zm-54.5896-.0192c.2823.0094 2.424.007 3.3729.0058.3195.0062.4855-.2354.4961-.4486.2016-4.0605.1153-23.39261-.012-26.445262-.0106-.263884-.1237-.3629602-.3041-.3869496-.8144-.1089121-3.1289-.0834835-3.8707.1103516-.1451.037663-.2306.147774-.2352.289312-.1816 7.868538-.0591 26.009348-.0207 26.352848.0382.344.2184.5105.5742.5225z"/><path d="m3.01795 19.1999c-1.32296.0101-2.443648-.7759-2.856862-2.0025-.015329-.0464-.02962-.093-.042862-.14-.450298-1.5709.422846-3.2143 1.987814-3.7405l25.10106-8.38334c.298-.08595.6065-.13086.9167-.13347 1.3581-.01056 2.5097.79265 2.933 2.04525l.0375.12099c.4696 1.6362-.6971 3.09667-2.0949 3.56477-.001.0007-.2553.0864-24.9619 8.4957-.3284.1116-.67261.17-1.01955.1731z"/><path d="m7.22233 31.7995c-1.32967.0095-2.45113-.7591-2.85842-1.9584-.01546-.0456-.02987-.0916-.04322-.1379-.45531-1.5767.41448-3.2239 1.98045-3.7466l25.03346-8.3915c.3235-.1072.6575-.1619.9935-.165 1.3332-.01 2.5046.7976 2.9179 2.0105l.0385.1262c.2418.8384.0989 1.7806-.3819 2.5242-.3583.5529-1.4884 1.0396-1.4884 1.0396l-25.12852 8.5191c-.34271.1151-.70155.1759-1.06335.1803z"/><path d="m28.179 31.7999c-.6443.0062-1.2741-.1945-1.7991-.5736-.525-.379-.9182-.9169-1.1233-1.5366l-8.2964-24.99871-.0415-.14031c-.4495-1.59417.415-3.25704 1.9643-3.786815.31-.105714.6305-.160869.9532-.163772.4793-.003628.9431.105955 1.38.324882.3599.180535.681.431455.9449.738335.2639.30689.4655.66367.593 1.04984l8.2956 24.99655.0241.0803c.4659 1.6551-.3966 3.319-1.9459 3.8488-.3061.1037-.6263.158-.9489.1611z"/><path d="m15.5714 35.9998c-.6443.0063-1.274-.1947-1.7989-.5741s-.918-.9177-1.1229-1.5379l-8.28903-24.9996c-.12844-.38568-.18068-.79329-.15372-1.1995.02695-.4062.13256-.80302.31078-1.16773.17822-.36472.42556-.69017.72785-.95772.30229-.26756.65359-.47196 1.0338-.60151.3063-.10394.62677-.15847.94971-.1616.64404-.00646 1.27357.19426 1.79832.57336s.91779.91713 1.12279 1.53696l8.2892 25.00064c.1285.3858.1808.7936.1537 1.2-.027.4064-.1328.8034-.3112 1.1682-.1785.3648-.4261.6903-.7287.9578-.3025.2676-.6541.4718-1.0346.6011-.3057.104-.6257.1585-.9481.1614h.001z"/><path d="m24.1267 26.4 5.8733-2.0316-1.92-5.7684-5.88 2.0103z"/><path d="m11.5372 30.6 5.8629-2.02-1.9313-5.78-5.8687 1.9997z"/><path d="m19.9127 13.8 5.8873-2.0473-1.9018-5.7527-5.8982 2.01266z"/><path d="m7.33018 18 5.86972-2.0282-1.9194-5.7718-5.8806 1.9937z"/></g></svg>

<svg width="120" height="36" viewBox="0 0 120 36" fill="none" xmlns="http://www.w3.org/2000/svg">
<path d="M42.8475 14.0442C42.8475 10.4894 45.443 8.00725 50.1598 8.00725C53.0378 8.00725 55.3928 8.92485 56.6687 9.82373C56.8513 9.95208 57.177 10.2635 56.9817 10.8426C56.7314 11.4663 56.2723 12.4043 55.943 13.0136C55.7512 13.3687 55.2616 13.3219 55.0108 13.195C54.102 12.7351 52.6114 11.9571 51.242 11.8137C50.8953 11.776 50.5464 11.7609 50.1977 11.7686C48.9917 11.7954 47.9842 12.2136 47.6294 13.1324C47.5598 13.3062 47.5211 13.4908 47.5148 13.6779C47.4816 14.8886 49.169 15.3264 51.2132 15.6772C55.0135 16.3273 57.8886 17.4399 57.8886 21.3459C57.8886 24.6629 55.2487 27.6606 50.0762 27.5687C46.6663 27.4999 44.2471 26.3493 42.9508 25.2329C42.9066 25.195 42.4131 24.6931 42.6776 24.0895C42.9803 23.3125 43.4913 22.422 43.8923 21.9492C44.1152 21.6455 44.7035 21.5973 45.0094 21.7865C46.0779 22.4496 47.8365 23.5128 49.8636 23.5834C50.0236 23.5889 50.1821 23.5898 50.3378 23.5858C52.1612 23.5416 53.2643 22.8512 53.2413 21.6882C53.2216 20.6636 51.7758 20.0651 49.4737 19.6318C45.8019 18.9412 42.848 17.7326 42.848 14.0442H42.8475ZM76.2049 19.1057C73.6156 19.1396 71.2416 19.8463 71.1732 21.8669C71.1724 23.4704 72.475 24.2579 74.3032 24.1548C76.0569 23.9861 77.3943 23.2266 77.9836 22.2188C78.2015 21.8453 78.2346 20.4477 78.2214 19.8504C78.2181 19.7232 77.9663 19.4826 77.856 19.4363C77.3059 19.2048 76.8987 19.1333 76.2046 19.1052L76.2049 19.1057ZM67.5893 10.9637C68.8001 9.88179 71.2008 8.19773 75.0268 8.28649C80.0758 8.39133 82.7431 10.755 82.9915 16.4093C83.0939 18.7411 82.9243 25.2451 82.8839 26.8656C82.8779 27.098 82.7991 27.2588 82.4854 27.2648C81.6539 27.2981 79.733 27.2849 78.8504 27.2734C78.405 27.2518 78.3533 27.0311 78.3475 26.8001C78.3437 26.649 78.3307 26.2008 78.3214 25.8355C78.3163 25.6417 78.134 25.6472 78.0874 25.6968C76.903 26.9596 74.9634 27.5694 72.9007 27.5694C69.7656 27.5694 66.6402 25.7278 66.6498 22.0807C66.6594 18.3455 69.3116 16.5031 72.2252 16.0687C74.0908 15.7913 76.1938 16.038 77.7864 16.6698C77.8882 16.7106 78.0963 16.6516 78.0979 16.5074C78.1044 16.0315 78.0814 15.1244 77.9898 14.6945C77.7561 13.5992 76.841 12.7178 74.9187 12.4803C74.5228 12.4316 74.1242 12.4156 73.7252 12.4472C72.197 12.5672 70.358 13.757 69.5965 14.2025C69.4173 14.3071 69.1367 14.2306 69.0459 14.1138C68.6014 13.5404 67.4843 11.8636 67.3964 11.5956C67.3085 11.3284 67.4325 11.1033 67.5888 10.9628L67.5893 10.9637V10.9637ZM84.6564 17.9168C84.6263 12.7075 88.2611 8.31288 94.1632 8.27426C97.846 8.25027 100.522 9.91753 100.993 10.7039C101.089 10.8886 101.04 11.0429 100.974 11.2288C100.662 11.8861 99.8743 13.1561 99.3131 13.8758C99.0741 14.1824 98.8146 13.9197 98.5131 13.7194C97.6764 13.1628 96.0865 12.4822 94.5219 12.4822C91.6833 12.4827 89.5694 14.4263 89.593 18.0022C89.6151 21.4337 91.6398 23.3195 94.5317 23.3878C96.0435 23.4257 97.5082 22.558 98.2962 21.8472C98.5437 21.6316 98.7997 21.7395 99.0825 21.9602C99.6374 22.5266 100.433 23.401 100.875 24.0029C101.164 24.3373 100.947 24.6646 100.843 24.796C99.6461 26.309 97.3336 27.5824 94.2732 27.5997C87.8652 27.6445 84.6864 23.1453 84.6568 17.9175L84.6564 17.9168ZM115.245 27.3648C115.546 27.3423 118.755 26.8999 119.741 26.6746C119.985 26.619 120.072 26.4136 119.935 26.2102C119.385 25.3864 117.939 23.047 116.424 20.9527C115.031 19.027 113.562 17.3334 113.087 16.6818C112.971 16.5235 112.977 16.3676 113.104 16.2447C114.007 15.3619 117.787 11.6616 119.208 10.1334C119.758 9.53898 119.427 9.28325 118.96 9.14435C118.058 8.87567 116.598 8.54078 115.767 8.3659C115.417 8.29201 114.996 8.31792 114.69 8.63218C113.269 9.9552 108.933 14.3009 107.638 15.5999C107.405 15.8343 107.27 15.7822 107.269 15.4473C107.258 12.9428 107.208 2.22004 107.119 0.456339C107.113 0.223161 106.832 0.0461189 106.673 0.0377226C105.86 -0.00473869 103.803 -0.0169735 102.993 0.0305256C102.766 0.0561943 102.549 0.287213 102.529 0.482487C102.343 3.30269 102.609 24.0051 102.72 26.9011C102.728 27.1105 102.884 27.2729 103.083 27.2847C103.891 27.3315 105.891 27.3283 106.824 27.3108C107.284 27.3108 107.34 26.9884 107.34 26.9884L107.409 21.4332C107.409 21.4332 107.456 21.1861 107.533 21.1045C107.862 20.7507 108.773 19.7762 109.161 19.3996C109.254 19.3092 109.401 19.3156 109.496 19.4435C109.957 20.0648 111.273 22.0847 112.492 23.8887C113.612 25.5459 114.658 27.0167 114.731 27.1206C114.9 27.3605 115.097 27.3701 115.245 27.3655V27.3648H115.245ZM60.6554 27.3456C60.9377 27.355 63.0794 27.3526 64.0283 27.3514C64.3478 27.3576 64.5138 27.116 64.5244 26.9028C64.726 22.8423 64.6397 3.51019 64.5124 0.457538C64.5018 0.193654 64.3887 0.0945778 64.2083 0.0705884C63.3939 -0.0383237 61.0794 -0.0128951 60.3376 0.18094C60.1925 0.218603 60.107 0.328714 60.1024 0.470252C59.9208 8.33879 60.0433 26.4796 60.0817 26.8231C60.1199 27.1671 60.3001 27.3336 60.6559 27.3456H60.6554V27.3456Z" fill="#ADB5BD"/>
<path d="M3.01795 19.1999C1.69499 19.21 0.574302 18.424 0.161088 17.1974C0.145759 17.151 0.131468 17.1044 0.118226 17.0574C-0.332072 15.4865 0.541072 13.8431 2.10604 13.3169L27.2071 4.93356C27.5051 4.84761 27.8136 4.8027 28.1238 4.80009C29.4819 4.78953 30.6335 5.59274 31.0568 6.84534L31.0943 6.96633C31.5639 8.60253 30.3972 10.063 28.9994 10.5311C28.9984 10.5318 28.7441 10.6175 4.0375 19.0268C3.7091 19.1384 3.36489 19.1968 3.01795 19.1999V19.1999Z" fill="#ADB5BD"/>
<path d="M7.22233 31.7995C5.89266 31.809 4.7712 31.0404 4.36391 29.8411C4.34845 29.7955 4.33404 29.7495 4.32069 29.7032C3.86538 28.1265 4.73517 26.4793 6.30114 25.9566L31.3346 17.5651C31.6581 17.4579 31.9921 17.4032 32.3281 17.4001C33.6613 17.3901 34.8327 18.1977 35.246 19.4106L35.2845 19.5368C35.5263 20.3752 35.3834 21.3174 34.9026 22.061C34.5443 22.6139 33.4142 23.1006 33.4142 23.1006L8.28568 31.6197C7.94297 31.7348 7.58413 31.7956 7.22233 31.8V31.7995V31.7995Z" fill="#ADB5BD"/>
<path d="M28.179 31.7999C27.5347 31.8061 26.9049 31.6054 26.3799 31.2263C25.8549 30.8473 25.4617 30.3094 25.2566 29.6897L16.9602 4.69099L16.9187 4.55068C16.4692 2.95651 17.3337 1.29364 18.883 0.763865C19.193 0.658151 19.5135 0.602996 19.8362 0.600093C20.3155 0.596465 20.7793 0.706048 21.2162 0.924975C21.5761 1.10551 21.8972 1.35643 22.1611 1.66331C22.425 1.9702 22.6266 2.32698 22.7541 2.71315L31.0497 27.7097L31.0738 27.79C31.5397 29.4451 30.6772 31.109 29.1279 31.6388C28.8218 31.7425 28.5016 31.7968 28.179 31.7999V31.7999Z" fill="#ADB5BD"/>
<path d="M15.5714 35.9998C14.9271 36.0061 14.2974 35.8051 13.7725 35.4257C13.2476 35.0463 12.8545 34.508 12.6496 33.8878L4.36057 8.8882C4.23213 8.50252 4.17989 8.09491 4.20685 7.6887C4.2338 7.2825 4.33941 6.88568 4.51763 6.52097C4.69585 6.15625 4.94319 5.8308 5.24548 5.56325C5.54777 5.29569 5.89907 5.09129 6.27928 4.96174C6.58558 4.8578 6.90605 4.80327 7.22899 4.80014C7.87303 4.79368 8.50256 4.9944 9.02731 5.3735C9.55206 5.7526 9.9451 6.29063 10.1501 6.91046L18.4393 31.9111C18.5678 32.2969 18.6201 32.7047 18.593 33.1111C18.566 33.5175 18.4602 33.9145 18.2818 34.2793C18.1033 34.6441 17.8557 34.9696 17.5531 35.2371C17.2506 35.5047 16.899 35.7089 16.5185 35.8382C16.2128 35.9422 15.8928 35.9967 15.5704 35.9996H15.5714V35.9998Z" fill="#ADB5BD"/>
<path d="M24.1267 26.4L30 24.3684L28.08 18.6L22.2 20.6103L24.1267 26.4V26.4Z" fill="#ADB5BD"/>
<path d="M11.5372 30.6L17.4001 28.58L15.4688 22.8L9.6001 24.7997L11.5372 30.6V30.6Z" fill="#ADB5BD"/>
<path d="M19.9127 13.8L25.8 11.7527L23.8982 6L18 8.01266L19.9127 13.8Z" fill="#ADB5BD"/>
<path d="M7.33018 18L13.1999 15.9718L11.2805 10.2L5.3999 12.1937L7.33018 18V18Z" fill="#ADB5BD"/>
</svg>
